src/epub/images/titlepage.svg

<?xml version="1.0" encoding="utf-8"?>
<svg xmlns="http://www.w3.org/2000/svg" xmlns:svg="http://www.w3.org/2000/svg" version="1.1" viewBox="0 0 1400 1050">
	<title>The titlepage for the Standard Ebooks edition of Love Among the Chickens, by P.G. Wodehouse</title>
	<g style="font-size:93.56725311px;font-family:'League Spartan';letter-spacing:5px;text-anchor:middle;fill:#000000">
		<path d="m 358.87353,52.807016 -17.59064,0 0,77.192984 44.16374,0 0,-15.4386 -26.5731,0 0,-61.754384 z" style="font-size:93.56725311px;font-family:'League Spartan';letter-spacing:5px;text-anchor:middle;fill:#000000"/>
		<path d="m 395.63523,91.356724 c 0,22.549706 16.09357,40.046786 38.92397,40.046786 22.17544,0 38.83042,-17.49708 38.83042,-40.046786 0,-22.549708 -17.40351,-39.953217 -38.83042,-39.953217 -21.23976,0 -38.92397,17.403509 -38.92397,39.953217 z m 18.99415,0 c 0,-11.508772 6.36257,-23.017544 19.92982,-23.017544 13.66082,0 19.83626,11.508772 19.83626,23.017544 0,11.508776 -5.80117,23.017546 -19.83626,23.017546 -14.40935,0 -19.92982,-11.50877 -19.92982,-23.017546 z" style="font-size:93.56725311px;font-family:'League Spartan';letter-spacing:5px;text-anchor:middle;fill:#000000"/>
		<path d="m 507.36768,130 13.84796,0 32.37427,-77.192984 -19.83626,0 -19.46199,50.713454 -19.46199,-50.713454 -19.83626,0 L 507.36768,130 Z" style="font-size:93.56725311px;font-family:'League Spartan';letter-spacing:5px;text-anchor:middle;fill:#000000"/>
		<path d="m 605.67324,52.807016 -44.16374,0 0,77.192984 44.16374,0 0,-15.4386 -26.5731,0 0,-15.532161 25.45029,0 0,-15.438597 -25.45029,0 0,-15.345029 26.5731,0 0,-15.438597 z" style="font-size:93.56725311px;font-family:'League Spartan';letter-spacing:5px;text-anchor:middle;fill:#000000"/>
		<path d="m 690.57531,52.807016 -16.28071,0 L 643.13671,130 l 18.90058,0 5.70761,-15.4386 29.38011,0 5.70761,15.4386 18.90058,0 -31.15789,-77.192984 z m 0.5614,46.31579 -17.40351,0 8.60819,-22.45614 0.18713,0 8.60819,22.45614 z" style="font-size:93.56725311px;font-family:'League Spartan';letter-spacing:5px;text-anchor:middle;fill:#000000"/>
		<path d="m 793.46566,130 17.59064,0 -6.92397,-77.192984 -18.71345,0 -17.12281,44.538013 -17.12281,-44.538013 -18.71345,0 L 725.53583,130 l 17.59065,0 3.64912,-45.754387 0.46784,0 15.81286,45.286547 10.47953,0 15.81287,-45.286547 0.46784,0 L 793.46566,130 Z" style="font-size:93.56725311px;font-family:'League Spartan';letter-spacing:5px;text-anchor:middle;fill:#000000"/>
		<path d="m 819.64109,91.356724 c 0,22.549706 16.09357,40.046786 38.92398,40.046786 22.17544,0 38.83041,-17.49708 38.83041,-40.046786 0,-22.549708 -17.40351,-39.953217 -38.83041,-39.953217 -21.23977,0 -38.92398,17.403509 -38.92398,39.953217 z m 18.99415,0 c 0,-11.508772 6.36258,-23.017544 19.92983,-23.017544 13.66082,0 19.83626,11.508772 19.83626,23.017544 0,11.508776 -5.80117,23.017546 -19.83626,23.017546 -14.40936,0 -19.92983,-11.50877 -19.92983,-23.017546 z" style="font-size:93.56725311px;font-family:'League Spartan';letter-spacing:5px;text-anchor:middle;fill:#000000"/>
		<path d="m 927.7478,82.093566 0.18713,0 L 958.62499,130 l 17.59065,0 0,-77.192984 -17.59065,0 0,47.906434 -0.18713,0 -30.69006,-47.906434 -17.59064,0 0,77.192984 17.59064,0 0,-47.906434 z" style="font-size:93.56725311px;font-family:'League Spartan';letter-spacing:5px;text-anchor:middle;fill:#000000"/>
		<path d="m 1062.261,86.771929 -35.6491,0 0,13.567251 17.7778,0 c 0,9.45029 -8.3275,14.87719 -16.7486,14.87719 -10.8538,0 -19.6491,-10.66666 -19.6491,-23.766078 0,-13.380117 8.7953,-24.140352 19.6491,-24.140352 6.8304,0 12.7252,2.713451 17.2164,9.918129 l 11.5088,-12.631579 c -6.7369,-8.140351 -16.1872,-13.192983 -29.7544,-13.192983 -21.7076,0 -37.61406,17.871346 -37.61406,40.046785 0,22.081868 16.84206,39.953218 37.61406,39.953218 15.1579,0 31.4386,-8.32749 35.6491,-27.88304 l 0,-16.748541 z" style="font-size:93.56725311px;font-family:'League Spartan';letter-spacing:5px;text-anchor:middle;fill:#000000"/>
	</g>
	<g style="font-size:93.56725311px;font-family:'League Spartan';letter-spacing:5px;text-anchor:middle;fill:#000000">
		<path d="m 318.99049,168.24561 18.33918,0 0,61.75439 17.59065,0 0,-61.75439 18.33918,0 0,-15.43859 -54.26901,0 0,15.43859 z" style="font-size:93.56725311px;font-family:'League Spartan';letter-spacing:5px;text-anchor:middle;fill:#000000"/>
		<path d="m 402.18494,199.02924 24.88889,0 0,30.97076 17.59064,0 0,-77.19298 -17.59064,0 0,30.78362 -24.88889,0 0,-30.78362 -17.59065,0 0,77.19298 17.59065,0 0,-30.97076 z" style="font-size:93.56725311px;font-family:'League Spartan';letter-spacing:5px;text-anchor:middle;fill:#000000"/>
		<path d="m 505.02997,152.80702 -44.16374,0 0,77.19298 44.16374,0 0,-15.4386 -26.5731,0 0,-15.53216 25.45029,0 0,-15.4386 -25.45029,0 0,-15.34503 26.5731,0 0,-15.43859 z" style="font-size:93.56725311px;font-family:'League Spartan';letter-spacing:5px;text-anchor:middle;fill:#000000"/>
		<path d="m 588.87938,214.09357 c -17.68421,0 -25.45029,-12.35088 -25.45029,-22.73685 0,-10.29239 7.76608,-22.64327 25.45029,-22.64327 8.98246,0 15.1579,4.77193 15.1579,4.77193 l 7.48538,-14.97076 c 0,0 -8.60819,-7.11111 -25.35673,-7.11111 -21.89473,0 -41.82456,17.96491 -41.82456,40.14035 0,22.08187 20.02339,39.85965 41.82456,39.85965 16.74854,0 25.35673,-7.11111 25.35673,-7.11111 l -7.48538,-14.97076 c 0,0 -6.17544,4.77193 -15.1579,4.77193 z" style="font-size:93.56725311px;font-family:'League Spartan';letter-spacing:5px;text-anchor:middle;fill:#000000"/>
		<path d="m 640.93494,199.02924 24.88889,0 0,30.97076 17.59065,0 0,-77.19298 -17.59065,0 0,30.78362 -24.88889,0 0,-30.78362 -17.59064,0 0,77.19298 17.59064,0 0,-30.97076 z" style="font-size:93.56725311px;font-family:'League Spartan';letter-spacing:5px;text-anchor:middle;fill:#000000"/>
		<path d="m 717.20689,152.80702 -17.59065,0 0,77.19298 17.59065,0 0,-77.19298 z" style="font-size:93.56725311px;font-family:'League Spartan';letter-spacing:5px;text-anchor:middle;fill:#000000"/>
		<path d="m 771.64255,214.09357 c -17.68421,0 -25.45029,-12.35088 -25.45029,-22.73685 0,-10.29239 7.76608,-22.64327 25.45029,-22.64327 8.98246,0 15.1579,4.77193 15.1579,4.77193 l 7.48538,-14.97076 c 0,0 -8.60819,-7.11111 -25.35673,-7.11111 -21.89473,0 -41.82456,17.96491 -41.82456,40.14035 0,22.08187 20.02339,39.85965 41.82456,39.85965 16.74854,0 25.35673,-7.11111 25.35673,-7.11111 l -7.48538,-14.97076 c 0,0 -6.17544,4.77193 -15.1579,4.77193 z" style="font-size:93.56725311px;font-family:'League Spartan';letter-spacing:5px;text-anchor:middle;fill:#000000"/>
		<path d="m 876.37649,230 -35.92982,-40.60819 31.06432,-36.58479 -21.33333,0 -26.47953,31.53216 0,-31.53216 -17.59065,0 0,77.19298 17.59065,0 0,-32.74854 28.44444,32.74854 24.23392,0 z" style="font-size:93.56725311px;font-family:'League Spartan';letter-spacing:5px;text-anchor:middle;fill:#000000"/>
		<path d="m 928.9189,152.80702 -44.16374,0 0,77.19298 44.16374,0 0,-15.4386 -26.5731,0 0,-15.53216 25.45029,0 0,-15.4386 -25.45029,0 0,-15.34503 26.5731,0 0,-15.43859 z" style="font-size:93.56725311px;font-family:'League Spartan';letter-spacing:5px;text-anchor:middle;fill:#000000"/>
		<path d="m 961.62211,182.09357 0.18713,0 L 992.4993,230 l 17.5906,0 0,-77.19298 -17.5906,0 0,47.90643 -0.18713,0 -30.69006,-47.90643 -17.59065,0 0,77.19298 17.59065,0 0,-47.90643 z" style="font-size:93.56725311px;font-family:'League Spartan';letter-spacing:5px;text-anchor:middle;fill:#000000"/>
		<path d="m 1052.9511,151.40351 c -12.4445,0 -25.1696,9.16959 -25.1696,23.57895 0,8.04678 5.4269,15.25146 14.69,19.83625 9.1696,4.5848 17.4035,7.11111 17.4035,12.72515 0,7.20468 -7.2982,7.57895 -11.1345,7.57895 -8.6081,0 -18.9005,-8.70176 -18.9005,-8.70176 l -8.7954,14.78363 c 0,0 10.9474,10.19883 29.0059,10.19883 15.0643,0 29.0994,-6.45614 29.0994,-24.88889 0,-10.10526 -9.4503,-17.40351 -18.0585,-21.05263 -8.7953,-3.74269 -16.0935,-6.83041 -16.0935,-11.13451 0,-4.21052 3.1812,-6.92397 9.1695,-6.92397 7.9533,0 15.6258,5.33333 15.6258,5.33333 l 7.1111,-14.03509 c 0,0 -9.9181,-7.29824 -23.9532,-7.29824 z" style="font-size:93.56725311px;font-family:'League Spartan';letter-spacing:5px;text-anchor:middle;fill:#000000"/>
	</g>
	<g style="font-size:70.17543793px;font-family:'League Spartan';letter-spacing:5px;text-anchor:middle;fill:#000000">
		<path d="m 346.05263,432.10526 0,57.89474 13.19299,0 0,-21.47368 7.92982,0 c 11.29825,0 19.78947,-6.66667 19.78947,-18.5965 0,-11.99999 -8.49122,-17.82456 -19.78947,-17.82456 l -21.12281,0 z M 359.24562,458 l 0,-15.36842 3.7193,0 c 5.19298,0 10.10526,1.75439 10.10526,7.7193 0,5.89473 -4.91228,7.64912 -10.10526,7.64912 l -3.7193,0 z" style="font-size:70.17543793px;font-family:'League Spartan';letter-spacing:5px;text-anchor:middle;fill:#000000"/>
		<path d="m 405.79057,474.98246 c -4.42105,0 -8,3.57894 -8,8.07017 0,4.42105 3.57895,8 8,8 4.49123,0 8.07018,-3.57895 8.07018,-8 0,-4.49123 -3.57895,-8.07017 -8.07018,-8.07017 z" style="font-size:70.17543793px;font-family:'League Spartan';letter-spacing:5px;text-anchor:middle;fill:#000000"/>
		<path d="m 479.67544,457.57895 -26.73684,0 0,10.17544 13.33333,0 c 0,7.08772 -6.24561,11.15789 -12.5614,11.15789 -8.14035,0 -14.73685,-8 -14.73685,-17.82456 0,-10.03509 6.5965,-18.10526 14.73685,-18.10526 5.1228,0 9.54386,2.03508 12.91228,7.43859 l 8.63158,-9.47368 c -5.05264,-6.10526 -12.14036,-9.89474 -22.31579,-9.89474 -16.28071,0 -28.21053,13.40351 -28.21053,30.03509 0,16.5614 12.63158,29.96491 28.21053,29.96491 11.36842,0 23.57894,-6.24561 26.73684,-20.91228 l 0,-12.5614 z" style="font-size:70.17543793px;font-family:'League Spartan';letter-spacing:5px;text-anchor:middle;fill:#000000"/>
		<path d="m 498.43859,474.98246 c -4.42105,0 -8,3.57894 -8,8.07017 0,4.42105 3.57895,8 8,8 4.49123,0 8.07018,-3.57895 8.07018,-8 0,-4.49123 -3.57895,-8.07017 -8.07018,-8.07017 z" style="font-size:70.17543793px;font-family:'League Spartan';letter-spacing:5px;text-anchor:middle;fill:#000000"/>
		<path d="m 582.55154,490 14.59649,0 16.49123,-57.89474 -14.59649,0 -9.89474,39.7193 -0.35088,0 -10.52631,-39.7193 -9.96492,0 -10.52631,39.7193 -0.35088,0 -9.89474,-39.7193 -14.66666,0 16.49123,57.89474 14.66666,0 9.26316,-32.49123 L 582.55154,490 Z" style="font-size:70.17543793px;font-family:'League Spartan';letter-spacing:5px;text-anchor:middle;fill:#000000"/>
		<path d="m 617.01425,461.01754 c 0,16.91228 12.07017,30.03509 29.19298,30.03509 16.63158,0 29.12281,-13.12281 29.12281,-30.03509 0,-16.91228 -13.05263,-29.96491 -29.12281,-29.96491 -15.92982,0 -29.19298,13.05263 -29.19298,29.96491 z m 14.24561,0 c 0,-8.63157 4.77193,-17.26315 14.94737,-17.26315 10.24562,0 14.87719,8.63158 14.87719,17.26315 0,8.63158 -4.35087,17.26316 -14.87719,17.26316 -10.80702,0 -14.94737,-8.63158 -14.94737,-17.26316 z" style="font-size:70.17543793px;font-family:'League Spartan';letter-spacing:5px;text-anchor:middle;fill:#000000"/>
		<path d="m 686.15133,432.10526 0,57.89474 16.77193,0 c 15.92982,0 29.19298,-12.07018 29.19298,-28.98246 0,-16.8421 -13.33333,-28.91228 -29.19298,-28.91228 l -16.77193,0 z m 13.19298,46.10527 0,-34.31579 2.03509,0 c 9.82456,0 16.49123,7.50877 16.49123,17.19298 -0.0702,9.68421 -6.73685,17.12281 -16.49123,17.12281 l -2.03509,0 z" style="font-size:70.17543793px;font-family:'League Spartan';letter-spacing:5px;text-anchor:middle;fill:#000000"/>
		<path d="m 776.08334,432.10526 -33.12281,0 0,57.89474 33.12281,0 0,-11.57895 -19.92983,0 0,-11.64912 19.08772,0 0,-11.57895 -19.08772,0 0,-11.50877 19.92983,0 0,-11.57895 z" style="font-size:70.17543793px;font-family:'League Spartan';letter-spacing:5px;text-anchor:middle;fill:#000000"/>
		<path d="m 801.86073,466.77193 18.66667,0 0,23.22807 13.19298,0 0,-57.89474 -13.19298,0 0,23.08772 -18.66667,0 0,-23.08772 -13.19298,0 0,57.89474 13.19298,0 0,-23.22807 z" style="font-size:70.17543793px;font-family:'League Spartan';letter-spacing:5px;text-anchor:middle;fill:#000000"/>
		<path d="m 844.5252,461.01754 c 0,16.91228 12.07018,30.03509 29.19299,30.03509 16.63158,0 29.1228,-13.12281 29.1228,-30.03509 0,-16.91228 -13.05263,-29.96491 -29.1228,-29.96491 -15.92983,0 -29.19299,13.05263 -29.19299,29.96491 z m 14.24562,0 c 0,-8.63157 4.77193,-17.26315 14.94737,-17.26315 10.24561,0 14.87719,8.63158 14.87719,17.26315 0,8.63158 -4.35088,17.26316 -14.87719,17.26316 -10.80702,0 -14.94737,-8.63158 -14.94737,-17.26316 z" style="font-size:70.17543793px;font-family:'League Spartan';letter-spacing:5px;text-anchor:middle;fill:#000000"/>
		<path d="m 958.15348,432.10526 -13.19298,0 0,33.47369 c 0,9.68421 -2.94737,12.49123 -9.40351,12.49123 -6.45614,0 -9.40351,-2.80702 -9.40351,-12.49123 l 0,-33.47369 -13.19298,0 0,37.33334 c 0,14.31579 7.85965,21.61403 22.59649,21.61403 14.73684,0 22.59649,-7.29824 22.59649,-21.61403 l 0,-37.33334 z" style="font-size:70.17543793px;font-family:'League Spartan';letter-spacing:5px;text-anchor:middle;fill:#000000"/>
		<path d="m 990.84538,431.05263 c -9.33333,0 -18.87719,6.8772 -18.87719,17.68421 0,6.03509 4.07017,11.4386 11.01754,14.8772 6.87719,3.43859 13.05263,5.33333 13.05263,9.54385 0,5.40351 -5.47368,5.68422 -8.35088,5.68422 -6.45614,0 -14.17543,-6.52632 -14.17543,-6.52632 l -6.59649,11.08772 c 0,0 8.21052,7.64912 21.75438,7.64912 11.29825,0 21.82456,-4.8421 21.82456,-18.66666 0,-7.57895 -7.0877,-13.05264 -13.54386,-15.78948 -6.59649,-2.80702 -12.07017,-5.12281 -12.07017,-8.35088 0,-3.15789 2.38596,-5.19298 6.87719,-5.19298 5.96491,0 11.71934,4 11.71934,4 l 5.3333,-10.52631 c 0,0 -7.4386,-5.47369 -17.96492,-5.47369 z" style="font-size:70.17543793px;font-family:'League Spartan';letter-spacing:5px;text-anchor:middle;fill:#000000"/>
		<path d="m 1054.784,432.10526 -33.1228,0 0,57.89474 33.1228,0 0,-11.57895 -19.9299,0 0,-11.64912 19.0878,0 0,-11.57895 -19.0878,0 0,-11.50877 19.9299,0 0,-11.57895 z" style="font-size:70.17543793px;font-family:'League Spartan';letter-spacing:5px;text-anchor:middle;fill:#000000"/>
	</g>
</svg>

<?xml version="1.0" encoding="utf-8"?>
<svg xmlns="http://www.w3.org/2000/svg" xmlns:svg="http://www.w3.org/2000/svg" version="1.1" viewBox="0 0 1400 1050">
	<title>The titlepage for the Standard Ebooks edition of Love Among the Chickens, by P.G. Wodehouse</title>
	<g aria-label="LOVE AMONG">
		<path d="M 358.87353,52.807016 H 341.28289 V 130 h 44.16374 v -15.4386 h -26.5731 z"/>
		<path d="m 395.63523,91.356724 c 0,22.549706 16.09357,40.046786 38.92397,40.046786 22.17544,0 38.83042,-17.49708 38.83042,-40.046786 0,-22.549708 -17.40351,-39.953217 -38.83042,-39.953217 -21.23976,0 -38.92397,17.403509 -38.92397,39.953217 z m 18.99415,0 c 0,-11.508772 6.36257,-23.017544 19.92982,-23.017544 13.66082,0 19.83626,11.508772 19.83626,23.017544 0,11.508776 -5.80117,23.017546 -19.83626,23.017546 -14.40935,0 -19.92982,-11.50877 -19.92982,-23.017546 z"/>
		<path d="m 507.36768,130 h 13.84796 L 553.58991,52.807016 H 533.75365 L 514.29166,103.52047 494.82967,52.807016 h -19.83626 z"/>
		<path d="M 605.67324,52.807016 H 561.5095 V 130 h 44.16374 v -15.4386 h -26.5731 V 99.029239 h 25.45029 V 83.590642 H 579.10014 V 68.245613 h 26.5731 z"/>
		<path d="M 690.57531,52.807016 H 674.2946 L 643.13671,130 h 18.90058 l 5.70761,-15.4386 h 29.38011 L 702.83262,130 h 18.90058 z m 0.5614,46.31579 H 673.7332 l 8.60819,-22.45614 h 0.18713 z"/>
		<path d="M 793.46566,130 H 811.0563 L 804.13233,52.807016 H 785.41888 L 768.29607,97.345029 751.17326,52.807016 H 732.45981 L 725.53583,130 h 17.59065 l 3.64912,-45.754387 h 0.46784 l 15.81286,45.286547 h 10.47953 L 789.3487,84.245613 h 0.46784 z"/>
		<path d="m 819.64109,91.356724 c 0,22.549706 16.09357,40.046786 38.92398,40.046786 22.17544,0 38.83041,-17.49708 38.83041,-40.046786 0,-22.549708 -17.40351,-39.953217 -38.83041,-39.953217 -21.23977,0 -38.92398,17.403509 -38.92398,39.953217 z m 18.99415,0 c 0,-11.508772 6.36258,-23.017544 19.92983,-23.017544 13.66082,0 19.83626,11.508772 19.83626,23.017544 0,11.508776 -5.80117,23.017546 -19.83626,23.017546 -14.40936,0 -19.92983,-11.50877 -19.92983,-23.017546 z"/>
		<path d="m 927.7478,82.093566 h 0.18713 L 958.62499,130 h 17.59065 V 52.807016 h -17.59065 v 47.906434 h -0.18713 L 927.7478,52.807016 H 910.15716 V 130 h 17.59064 z"/>
		<path d="m 1062.261,86.771929 h -35.6491 v 13.567251 h 17.7778 c 0,9.45029 -8.3275,14.87719 -16.7486,14.87719 -10.8538,0 -19.6491,-10.66666 -19.6491,-23.766078 0,-13.380117 8.7953,-24.140352 19.6491,-24.140352 6.8304,0 12.7252,2.713451 17.2164,9.918129 l 11.5088,-12.631579 c -6.7369,-8.140351 -16.1872,-13.192983 -29.7544,-13.192983 -21.7076,0 -37.61406,17.871346 -37.61406,40.046785 0,22.081868 16.84206,39.953218 37.61406,39.953218 15.1579,0 31.4386,-8.32749 35.6491,-27.88304 z"/>
	</g>
	<g aria-label="THE CHICKENS">
		<path d="m 318.99049,168.24561 h 18.33918 V 230 h 17.59065 v -61.75439 h 18.33918 v -15.43859 h -54.26901 z"/>
		<path d="m 402.18494,199.02924 h 24.88889 V 230 h 17.59064 v -77.19298 h -17.59064 v 30.78362 H 402.18494 V 152.80702 H 384.59429 V 230 h 17.59065 z"/>
		<path d="M 505.02997,152.80702 H 460.86623 V 230 h 44.16374 v -15.4386 h -26.5731 v -15.53216 h 25.45029 v -15.4386 h -25.45029 v -15.34503 h 26.5731 z"/>
		<path d="m 588.87938,214.09357 c -17.68421,0 -25.45029,-12.35088 -25.45029,-22.73685 0,-10.29239 7.76608,-22.64327 25.45029,-22.64327 8.98246,0 15.1579,4.77193 15.1579,4.77193 l 7.48538,-14.97076 c 0,0 -8.60819,-7.11111 -25.35673,-7.11111 -21.89473,0 -41.82456,17.96491 -41.82456,40.14035 0,22.08187 20.02339,39.85965 41.82456,39.85965 16.74854,0 25.35673,-7.11111 25.35673,-7.11111 l -7.48538,-14.97076 c 0,0 -6.17544,4.77193 -15.1579,4.77193 z"/>
		<path d="m 640.93494,199.02924 h 24.88889 V 230 h 17.59065 v -77.19298 h -17.59065 v 30.78362 H 640.93494 V 152.80702 H 623.3443 V 230 h 17.59064 z"/>
		<path d="M 717.20689,152.80702 H 699.61624 V 230 h 17.59065 z"/>
		<path d="m 771.64255,214.09357 c -17.68421,0 -25.45029,-12.35088 -25.45029,-22.73685 0,-10.29239 7.76608,-22.64327 25.45029,-22.64327 8.98246,0 15.1579,4.77193 15.1579,4.77193 l 7.48538,-14.97076 c 0,0 -8.60819,-7.11111 -25.35673,-7.11111 -21.89473,0 -41.82456,17.96491 -41.82456,40.14035 0,22.08187 20.02339,39.85965 41.82456,39.85965 16.74854,0 25.35673,-7.11111 25.35673,-7.11111 l -7.48538,-14.97076 c 0,0 -6.17544,4.77193 -15.1579,4.77193 z"/>
		<path d="m 876.37649,230 -35.92982,-40.60819 31.06432,-36.58479 h -21.33333 l -26.47953,31.53216 V 152.80702 H 806.10748 V 230 h 17.59065 V 197.25146 L 852.14257,230 Z"/>
		<path d="M 928.9189,152.80702 H 884.75516 V 230 h 44.16374 v -15.4386 h -26.5731 v -15.53216 h 25.45029 v -15.4386 H 902.3458 v -15.34503 h 26.5731 z"/>
		<path d="m 961.62211,182.09357 h 0.18713 L 992.4993,230 h 17.5906 v -77.19298 h -17.5906 v 47.90643 h -0.18713 L 961.62211,152.80702 H 944.03146 V 230 h 17.59065 z"/>
		<path d="m 1052.9511,151.40351 c -12.4445,0 -25.1696,9.16959 -25.1696,23.57895 0,8.04678 5.4269,15.25146 14.69,19.83625 9.1696,4.5848 17.4035,7.11111 17.4035,12.72515 0,7.20468 -7.2982,7.57895 -11.1345,7.57895 -8.6081,0 -18.9005,-8.70176 -18.9005,-8.70176 l -8.7954,14.78363 c 0,0 10.9474,10.19883 29.0059,10.19883 15.0643,0 29.0994,-6.45614 29.0994,-24.88889 0,-10.10526 -9.4503,-17.40351 -18.0585,-21.05263 -8.7953,-3.74269 -16.0935,-6.83041 -16.0935,-11.13451 0,-4.21052 3.1812,-6.92397 9.1695,-6.92397 7.9533,0 15.6258,5.33333 15.6258,5.33333 l 7.1111,-14.03509 c 0,0 -9.9181,-7.29824 -23.9532,-7.29824 z"/>
	</g>
	<g aria-label="P.G. WODEHOUSE">
		<path d="M 346.05263,432.10526 V 490 h 13.19299 v -21.47368 h 7.92982 c 11.29825,0 19.78947,-6.66667 19.78947,-18.5965 0,-11.99999 -8.49122,-17.82456 -19.78947,-17.82456 z M 359.24562,458 v -15.36842 h 3.7193 c 5.19298,0 10.10526,1.75439 10.10526,7.7193 0,5.89473 -4.91228,7.64912 -10.10526,7.64912 z"/>
		<path d="m 405.79057,474.98246 c -4.42105,0 -8,3.57894 -8,8.07017 0,4.42105 3.57895,8 8,8 4.49123,0 8.07018,-3.57895 8.07018,-8 0,-4.49123 -3.57895,-8.07017 -8.07018,-8.07017 z"/>
		<path d="M 479.67544,457.57895 H 452.9386 v 10.17544 h 13.33333 c 0,7.08772 -6.24561,11.15789 -12.5614,11.15789 -8.14035,0 -14.73685,-8 -14.73685,-17.82456 0,-10.03509 6.5965,-18.10526 14.73685,-18.10526 5.1228,0 9.54386,2.03508 12.91228,7.43859 l 8.63158,-9.47368 c -5.05264,-6.10526 -12.14036,-9.89474 -22.31579,-9.89474 -16.28071,0 -28.21053,13.40351 -28.21053,30.03509 0,16.5614 12.63158,29.96491 28.21053,29.96491 11.36842,0 23.57894,-6.24561 26.73684,-20.91228 z"/>
		<path d="m 498.43859,474.98246 c -4.42105,0 -8,3.57894 -8,8.07017 0,4.42105 3.57895,8 8,8 4.49123,0 8.07018,-3.57895 8.07018,-8 0,-4.49123 -3.57895,-8.07017 -8.07018,-8.07017 z"/>
		<path d="m 582.55154,490 h 14.59649 l 16.49123,-57.89474 h -14.59649 l -9.89474,39.7193 h -0.35088 l -10.52631,-39.7193 h -9.96492 l -10.52631,39.7193 h -0.35088 l -9.89474,-39.7193 H 532.86733 L 549.35856,490 h 14.66666 l 9.26316,-32.49123 z"/>
		<path d="m 617.01425,461.01754 c 0,16.91228 12.07017,30.03509 29.19298,30.03509 16.63158,0 29.12281,-13.12281 29.12281,-30.03509 0,-16.91228 -13.05263,-29.96491 -29.12281,-29.96491 -15.92982,0 -29.19298,13.05263 -29.19298,29.96491 z m 14.24561,0 c 0,-8.63157 4.77193,-17.26315 14.94737,-17.26315 10.24562,0 14.87719,8.63158 14.87719,17.26315 0,8.63158 -4.35087,17.26316 -14.87719,17.26316 -10.80702,0 -14.94737,-8.63158 -14.94737,-17.26316 z"/>
		<path d="M 686.15133,432.10526 V 490 h 16.77193 c 15.92982,0 29.19298,-12.07018 29.19298,-28.98246 0,-16.8421 -13.33333,-28.91228 -29.19298,-28.91228 z m 13.19298,46.10527 v -34.31579 h 2.03509 c 9.82456,0 16.49123,7.50877 16.49123,17.19298 -0.0702,9.68421 -6.73685,17.12281 -16.49123,17.12281 z"/>
		<path d="M 776.08334,432.10526 H 742.96053 V 490 h 33.12281 v -11.57895 h -19.92983 v -11.64912 h 19.08772 v -11.57895 h -19.08772 v -11.50877 h 19.92983 z"/>
		<path d="M 801.86073,466.77193 H 820.5274 V 490 h 13.19298 V 432.10526 H 820.5274 v 23.08772 H 801.86073 V 432.10526 H 788.66775 V 490 h 13.19298 z"/>
		<path d="m 844.5252,461.01754 c 0,16.91228 12.07018,30.03509 29.19299,30.03509 16.63158,0 29.1228,-13.12281 29.1228,-30.03509 0,-16.91228 -13.05263,-29.96491 -29.1228,-29.96491 -15.92983,0 -29.19299,13.05263 -29.19299,29.96491 z m 14.24562,0 c 0,-8.63157 4.77193,-17.26315 14.94737,-17.26315 10.24561,0 14.87719,8.63158 14.87719,17.26315 0,8.63158 -4.35088,17.26316 -14.87719,17.26316 -10.80702,0 -14.94737,-8.63158 -14.94737,-17.26316 z"/>
		<path d="M 958.15348,432.10526 H 944.9605 v 33.47369 c 0,9.68421 -2.94737,12.49123 -9.40351,12.49123 -6.45614,0 -9.40351,-2.80702 -9.40351,-12.49123 V 432.10526 H 912.9605 v 37.33334 c 0,14.31579 7.85965,21.61403 22.59649,21.61403 14.73684,0 22.59649,-7.29824 22.59649,-21.61403 z"/>
		<path d="m 990.84538,431.05263 c -9.33333,0 -18.87719,6.8772 -18.87719,17.68421 0,6.03509 4.07017,11.4386 11.01754,14.8772 6.87719,3.43859 13.05263,5.33333 13.05263,9.54385 0,5.40351 -5.47368,5.68422 -8.35088,5.68422 -6.45614,0 -14.17543,-6.52632 -14.17543,-6.52632 l -6.59649,11.08772 c 0,0 8.21052,7.64912 21.75438,7.64912 11.29825,0 21.82456,-4.8421 21.82456,-18.66666 0,-7.57895 -7.0877,-13.05264 -13.54386,-15.78948 -6.59649,-2.80702 -12.07017,-5.12281 -12.07017,-8.35088 0,-3.15789 2.38596,-5.19298 6.87719,-5.19298 5.96491,0 11.71934,4 11.71934,4 l 5.3333,-10.52631 c 0,0 -7.4386,-5.47369 -17.96492,-5.47369 z"/>
		<path d="m 1054.784,432.10526 h -33.1228 V 490 h 33.1228 v -11.57895 h -19.9299 v -11.64912 h 19.0878 v -11.57895 h -19.0878 v -11.50877 h 19.9299 z"/>
	</g>
</svg>
